X:1
T:Introi
T:Introi
T:S J Shaw
T:Ps118 v24
T:Copyright © 2017 by Simon J Shaw with apologies to Cashmore
T:Copyright © 2017 by Simon J Shaw with apologies to Cashmore
T:Copyright © 2017 by Simon J Shaw with apologies to Cashmore
C:S J Shaw
Z:Copyright © 2017 by Simon J Shaw
Z:with apologies to Cashmore
%%score 1 2 3 4
L:1/8
Q:1/2=68
M:2/2
K:Eb
V:1 treble 
V:2 treble 
V:3 bass 
V:4 bass 
V:1
 B4 G3 B | e4 E3 G | c6 c2 | B6 z2 | z8 | z2 z E F3 G | A2 c2 f3 e | d3 c B3 A | G4 G4 | %9
w: ~ ~ ~|~ ~ ~|~ ~|~||Let us re-|joice, re- joice in|it, Let us re-|joice in|
 c4 (B2 A2) | G4 F4 | E6 B2 | e6 e2 | e6 f2 |"^[" [eg]8 |] %15
w: it, re- *|joice in|it, Let|us re-|joice in|it.|
V:2
 E4 E3 F | E4 C2 E2 | (E4 F3) F | (F2 G4) z2 | z4 z2 B,2 | C3 E F2 E2 | F2 (FG) A3 G | %7
w: This is the|day that the|Lord * has|made *|Let|us re- joice, let|us re- * joice in|
 F2 G2 B,2 C2 | D4 =B,4 | G4 (G2 F2) | E4 D4 | E6 =G2 | _G4 B4 | A4 F4 | =G8 |] %15
w: it, let us re-|joice in|it, re- *|joice in|it. Let|us re-|joice in|it.|
V:3
!f! G,4 B,3 B, | G,4 (G,A,) B,2 | (C4 D3) D | (D2 E4) z2 | z4 z2 B,2 | C3!<(! B, A,2 B,2!<)! | %6
 C2 E2 D3 C | B,2!f! B,2 D2 C2 | =B,4 D4 | C4!mf! E4 | (E2!>(! C2) (B,2 A,2)!>)! | G,6!f! B,2 | %12
 _C4 _D4 |!<(! _C4 A,4!<)! |!ff! B,8 |] %15
V:4
 E,4 E,3 D, | C,4 C,2 B,,2 | A,,4 A,4 | G,6!mp! G,2 |!<(! F,2 G,2 A,4-!<)! | A,2 G,2 F,3 E, | %6
w: ~ ~ ~|~ ~ ~|~ ~|~ Let|us re- joice,|* re- joice, let|
 D,2 C,2 B,,2 B,,2 | (D,2 E,2) F,4 | G,4 F,4 | (E,2 D,2) C,4 | B,,4 B,,4 | E,6 _D,2 | _C,6 C,2 | %13
w: us re- joice in|it * Let|us re-|joice, * re-|joice in|it Let|us re-|
 _C,6 C,2 | E,8 |] %15
w: joice in|it.|

